local/share/icons/dracula-icons-main/16/devices/drive-harddisk-encrypted.svg

<?xml version="1.0" encoding="UTF-8"?>
<svg xmlns="http://www.w3.org/2000/svg" xmlns:xlink="http://www.w3.org/1999/xlink" width="16" height="16" viewBox="0 0 16 16">
<path fill-rule="nonzero" fill="rgb(44.705882%, 44.705882%, 44.705882%)" fill-opacity="1" d="M 7.996094 4 C 7.929688 4 7.859375 4.003906 7.789062 4.011719 C 6.773438 4.117188 6 4.976562 5.996094 6 L 6 7 L 5 7 L 5 10 L 8 10 C 9.636719 10 10.96875 8.6875 10.996094 7.050781 L 10.996094 7 L 9.996094 7 L 9.996094 6 C 9.996094 4.949219 9.1875 4.078125 8.136719 4.007812 C 8.089844 4.003906 8.042969 4 7.996094 4 Z M 7.996094 5 C 8.550781 5 8.996094 5.449219 8.996094 6 L 8.996094 7 L 6.996094 7 L 6.996094 6 C 6.996094 5.449219 7.445312 5 7.996094 5 Z M 7.996094 5 "/>
<path fill-rule="nonzero" fill="rgb(44.705882%, 44.705882%, 44.705882%)" fill-opacity="1" d="M 3 1 C 2 1 2 2 2 2 L 2 14 C 2 14 2 15 3 15 L 13 15 C 13 15 14 15 14 14 L 14 2 C 14 2 14 1 13 1 Z M 8 3 C 13.332031 3 13.332031 11 8 11 L 4 11 L 4 7 C 4 4.789062 5.789062 3 8 3 Z M 8 3 "/>
</svg>

<svg xmlns="http://www.w3.org/2000/svg" width="16" height="16" version="1.1" viewBox="0 0 16 16">
 <defs>
  <style id="current-color-scheme" type="text/css">
   .ColorScheme-Text { color:#727272; } .ColorScheme-Highlight { color:#5294e2; }
  </style>
 </defs>
 <path style="fill:currentColor" class="ColorScheme-Text" d="m7.998 4a2 2 0 0 0-0.20703 0.011719 2 2 0 0 0-1.793 1.9883l0.0019531 1h-1v3h3a3 3 0 0 0 2.998-2.9473v-0.052734h-1v-1a2 2 0 0 0-1.8594-1.9941 2 2 0 0 0-0.14062-0.0058594zm0 1a1 1 0 0 1 1 1v1h-2v-1a1 1 0 0 1 1-1z"/>
 <path style="fill:currentColor" class="ColorScheme-Text" d="m3 1c-1 0-1 1-1 1v12s0 1 1 1h10s1 0 1-1v-12s0-1-1-1zm5 2c5.3333 0 5.3333 8 0 8h-4v-4c0-2.2091 1.7909-4 4-4z"/>
</svg>
